X:1
T:Title
%%score { ( 1 3 4 ) | ( 2 5 ) }
L:1/8
M:9/8
K:G
V:1 treble nm="Grand Piano"
V:3 treble 
V:4 treble 
V:2 bass 
V:5 bass 
V:1
 z3 z3[Q:1/4=113] D2 D | G,2 G, z E[A,F] [B,G]2 [CA] | [CG]3 [CF]3 F2 G | %3
 [FA]2- [DF-A-] [DFA]2 [DGB] [DAc]2 [DAc] |[M:3/4] [DGB]6 |[M:3/8] B2 c | %6
[M:9/8] [Bd]2- [DB-d-] [Bd]cB Bc[DGB] | [CEA]3 [G,CE]3 G2 E | G,2 G, G,2 [B,DG] [A,DG]2 [CDF] | %9
[M:3/4] [G,B,DG]6 |[M:3/8] B2 B |[M:9/8] [Ac]2- [DA-c-] [DAc]2 [FA] [FA][GB][Ac] | B3 d3 d2 d | %13
 [Ge]6 z3 |[M:3/4] [^DB]6 |[M:3/8] BAB |[M:9/8] d6 z3 | B3 G3 G2 E | G,2 G, G,2 G G2 F | %19
[M:3/4] [B,DG]6 |] %20
V:2
 z3 z3 B,2 B, | G,,2 G,, z C[G,,D,] [G,,D,]2 [G,,D,] | [A,,D,]3 [A,,D,]3 D2 E | %3
 D,2 D, D,2 D, D,2 D, |[M:3/4] G,6 |[M:3/8][K:treble] G2 A | %6
[M:9/8] G,2 G, z A[G,DG] [G,G]-[G,EG][K:bass]G, | C,3 C,3 E2 C | D,2 D, D,2 D, D,2 D, | %9
[M:3/4] G,,6 |[M:3/8][K:treble] G2 G |[M:9/8][K:bass] D,2 D, D,2 [D,D] [D,D]2 [D,D] | %12
 [G,DG]3 [G,B,G]3 B2 B | [E,B,]2 E, E,2 [E,B,E] [E,B,E]2 [C,E,] |[M:3/4] [B,,F,]6 |[M:3/8] z3 | %16
[M:9/8] [D,A,]2 [D,G,] [D,A,]2 [D,D] [D,D]2 [D,D] | [G,DG]3 [G,B,D]3 E2 C | %18
 D,2 D, D,2 [D,B,D] [D,A,D]2 [D,CD] |[M:3/4] [G,,G,]6 |] %20
V:3
 x9 | .[B,D]6 z3 | x9 | .D3 z3 z3 |[M:3/4] x6 |[M:3/8] x3 |[M:9/8] .D3 .D3 z3 | x9 | [B,D]6 z3 | %9
[M:3/4] x6 |[M:3/8] x3 |[M:9/8] .D3 z3 z3 | x9 | z2 B, B,2 G G2 [EA] |[M:3/4] x6 |[M:3/8] x3 | %16
[M:9/8] F2 F F2 [FA] [FA][GB][Ac] | x9 | [B,D]6 z3 |[M:3/4] x6 |] %20
V:4
 x9 | z3 .G,3 z3 | x9 | x9 |[M:3/4] x6 |[M:3/8] x3 |[M:9/8] x9 | x9 | x9 |[M:3/4] x6 |[M:3/8] x3 | %11
[M:9/8] x9 | x9 | x9 |[M:3/4] x6 |[M:3/8] x3 |[M:9/8] x9 | x9 | x9 |[M:3/4] x6 |] %20
V:5
 x9 | z3 .G,,3 z3 | x9 | x9 |[M:3/4] x6 |[M:3/8][K:treble] x3 |[M:9/8] z3 .G,3 .D3[K:bass] | x9 | %8
 x9 |[M:3/4] x6 |[M:3/8][K:treble] x3 |[M:9/8][K:bass] x9 | x9 | x9 |[M:3/4] x6 |[M:3/8] x3 | %16
[M:9/8] x9 | x9 | x9 |[M:3/4] x6 |] %20

